Newaita-dark/apps/16/dragonplayer.svg

<?xml version="1.0" encoding="UTF-8"?>
<svg xmlns="http://www.w3.org/2000/svg" xmlns:xlink="http://www.w3.org/1999/xlink" width="16pt" height="16pt" viewBox="0 0 16 16" version="1.1">
<defs>
<linearGradient id="linear0" gradientUnits="userSpaceOnUse" x1="254" y1="233.5" x2="254" y2="254.666672" gradientTransform="matrix(0.031253,0,0,0.031253,-0.00000190753,6.719393)">
<stop offset="0" style="stop-color:rgb(0%,0%,0%);stop-opacity:0.27451;"/>
<stop offset="1" style="stop-color:rgb(0%,0%,0%);stop-opacity:0;"/>
</linearGradient>
<radialGradient id="radial0" gradientUnits="userSpaceOnUse" cx="450.908936" cy="189.579361" fx="450.908936" fy="189.579361" r="21.166656" gradientTransform="matrix(0.0000000870852,-0.0390662,-0.0703192,-0.0000000507693,26.561465,31.797666)">
<stop offset="0" style="stop-color:rgb(0%,0%,0%);stop-opacity:0.313725;"/>
<stop offset="0.222222" style="stop-color:rgb(0%,0%,0%);stop-opacity:0.27451;"/>
<stop offset="1" style="stop-color:rgb(0%,0%,0%);stop-opacity:0;"/>
</radialGradient>
<radialGradient id="radial1" gradientUnits="userSpaceOnUse" cx="450.908936" cy="189.579361" fx="450.908936" fy="189.579361" r="21.166656" gradientTransform="matrix(-0.0000000870852,0.0390662,0.0703192,0.0000000507693,-10.60226,-3.763739)">
<stop offset="0" style="stop-color:rgb(0%,0%,0%);stop-opacity:0.313725;"/>
<stop offset="0.222222" style="stop-color:rgb(0%,0%,0%);stop-opacity:0.27451;"/>
<stop offset="1" style="stop-color:rgb(0%,0%,0%);stop-opacity:0;"/>
</radialGradient>
<radialGradient id="radial2" gradientUnits="userSpaceOnUse" cx="450.908936" cy="189.579361" fx="450.908936" fy="189.579361" r="21.166656" gradientTransform="matrix(-0.0000000870852,-0.0390662,0.0703192,-0.0000000507693,-10.60226,31.797666)">
<stop offset="0" style="stop-color:rgb(0%,0%,0%);stop-opacity:0.313725;"/>
<stop offset="0.222222" style="stop-color:rgb(0%,0%,0%);stop-opacity:0.27451;"/>
<stop offset="1" style="stop-color:rgb(0%,0%,0%);stop-opacity:0;"/>
</radialGradient>
<radialGradient id="radial3" gradientUnits="userSpaceOnUse" cx="450.908936" cy="189.579361" fx="450.908936" fy="189.579361" r="21.166656" gradientTransform="matrix(0.0000000870852,0.0390662,-0.0703192,0.0000000507693,26.561464,-3.76374)">
<stop offset="0" style="stop-color:rgb(0%,0%,0%);stop-opacity:0.313725;"/>
<stop offset="0.222222" style="stop-color:rgb(0%,0%,0%);stop-opacity:0.27451;"/>
<stop offset="1" style="stop-color:rgb(0%,0%,0%);stop-opacity:0;"/>
</radialGradient>
<linearGradient id="linear1" gradientUnits="userSpaceOnUse" x1="254" y1="233.5" x2="254" y2="-168.666656" gradientTransform="matrix(0.031253,0,0,0.031253,0,6.719392)">
<stop offset="0" style="stop-color:rgb(14.901961%,65.098039%,60.392157%);stop-opacity:1;"/>
<stop offset="1" style="stop-color:rgb(30.196078%,71.372549%,67.45098%);stop-opacity:1;"/>
</linearGradient>
<linearGradient id="linear2" gradientUnits="userSpaceOnUse" x1="370.416656" y1="159.416672" x2="370.416656" y2="180.583328" gradientTransform="matrix(1,0,0,1,0,10.583338)">
<stop offset="0" style="stop-color:rgb(87.843137%,87.843137%,87.843137%);stop-opacity:1;"/>
<stop offset="1" style="stop-color:rgb(98.039216%,98.039216%,98.039216%);stop-opacity:1;"/>
</linearGradient>
<linearGradient id="linear3" gradientUnits="userSpaceOnUse" x1="211.666672" y1="159.416672" x2="211.666672" y2="180.583328" gradientTransform="matrix(1,0,0,1,0,10.583338)">
<stop offset="0" style="stop-color:rgb(89.803922%,22.352941%,20.784314%);stop-opacity:1;"/>
<stop offset="1" style="stop-color:rgb(93.72549%,32.54902%,31.372549%);stop-opacity:1;"/>
</linearGradient>
<linearGradient id="linear4" gradientUnits="userSpaceOnUse" x1="285.75" y1="138.25" x2="285.75" y2="201.75" gradientTransform="matrix(1,0,0,1,26.458323,10.583338)">
<stop offset="0" style="stop-color:rgb(87.843137%,87.843137%,87.843137%);stop-opacity:1;"/>
<stop offset="1" style="stop-color:rgb(98.039216%,98.039216%,98.039216%);stop-opacity:1;"/>
</linearGradient>
<linearGradient id="linear5" gradientUnits="userSpaceOnUse" x1="254" y1="53.583332" x2="254" y2="-105.166656" gradientTransform="matrix(0.031253,0,0,0.031253,-0.166995,6.802994)">
<stop offset="0" style="stop-color:rgb(87.843137%,87.843137%,87.843137%);stop-opacity:1;"/>
<stop offset="1" style="stop-color:rgb(96.078431%,96.078431%,96.078431%);stop-opacity:1;"/>
</linearGradient>
</defs>
<g id="surface1">
<path style=" stroke:none;fill-rule:nonzero;fill:url(#linear0);" d="M 2.5625 14.015625 L 13.394531 14.015625 L 13.394531 14.679688 L 2.5625 14.679688 Z M 2.5625 14.015625 "/>
<path style=" stroke:none;fill-rule:nonzero;fill:url(#radial0);" d="M 13.394531 14.015625 L 14.71875 14.015625 L 14.71875 13.355469 L 13.394531 13.355469 Z M 13.394531 14.015625 "/>
<path style=" stroke:none;fill-rule:nonzero;fill:url(#radial1);" d="M 2.5625 14.015625 L 1.242188 14.015625 L 1.242188 14.679688 L 2.5625 14.679688 Z M 2.5625 14.015625 "/>
<path style=" stroke:none;fill-rule:nonzero;fill:url(#radial2);" d="M 2.5625 14.015625 L 1.242188 14.015625 L 1.242188 13.355469 L 2.5625 13.355469 Z M 2.5625 14.015625 "/>
<path style=" stroke:none;fill-rule:nonzero;fill:url(#radial3);" d="M 13.394531 14.015625 L 14.71875 14.015625 L 14.71875 14.679688 L 13.394531 14.679688 Z M 13.394531 14.015625 "/>
<path style=" stroke:none;fill-rule:nonzero;fill:url(#linear1);" d="M 1.652344 1.449219 L 14.222656 1.449219 C 14.589844 1.449219 14.882812 1.746094 14.882812 2.109375 L 14.882812 13.355469 C 14.882812 13.722656 14.589844 14.015625 14.222656 14.015625 L 1.652344 14.015625 C 1.289062 14.015625 0.992188 13.722656 0.992188 13.355469 L 0.992188 2.109375 C 0.992188 1.746094 1.289062 1.449219 1.652344 1.449219 Z M 1.652344 1.449219 "/>
<path style="fill-rule:nonzero;fill:url(#linear2);stroke-width:3;stroke-linecap:round;stroke-linejoin:miter;stroke:rgb(12.941177%,12.941177%,12.941177%);stroke-opacity:1;stroke-miterlimit:4;" d="M 74.117922 169.963238 L 433.958559 169.963238 C 439.70801 169.963238 444.457556 174.712784 444.457556 180.587223 C 444.457556 186.461662 439.70801 191.211209 433.958559 191.211209 L 74.117922 191.211209 C 68.243483 191.211209 63.493937 186.461662 63.493937 180.587223 C 63.493937 174.712784 68.243483 169.963238 74.117922 169.963238 Z M 74.117922 169.963238 " transform="matrix(0.031253,0,0,0.031253,0,6.719392)"/>
<path style="fill-rule:nonzero;fill:url(#linear3);stroke-width:3;stroke-linecap:round;stroke-linejoin:miter;stroke:rgb(12.941177%,12.941177%,12.941177%);stroke-opacity:1;stroke-miterlimit:4;" d="M 74.117922 169.963238 L 338.717654 169.963238 C 344.467105 169.963238 349.216651 174.33782 349.216651 179.587319 L 349.216651 181.587128 C 349.216651 186.836627 344.467105 191.211209 338.717654 191.211209 L 74.117922 191.211209 C 68.243483 191.211209 63.493937 186.836627 63.493937 181.587128 L 63.493937 179.587319 C 63.493937 174.33782 68.243483 169.963238 74.117922 169.963238 Z M 74.117922 169.963238 " transform="matrix(0.031253,0,0,0.031253,0,6.719392)"/>
<path style="fill-rule:nonzero;fill:url(#linear4);stroke-width:3;stroke-linecap:round;stroke-linejoin:miter;stroke:rgb(12.941177%,12.941177%,12.941177%);stroke-opacity:1;stroke-miterlimit:4;" d="M 322.84417 148.840255 C 340.342499 148.840255 354.591138 163.088894 354.591138 180.587223 C 354.591138 198.085552 340.342499 212.334192 322.84417 212.334192 C 305.220853 212.334192 291.097202 198.085552 291.097202 180.587223 C 291.097202 163.088894 305.220853 148.840255 322.84417 148.840255 Z M 322.84417 148.840255 " transform="matrix(0.031253,0,0,0.031253,0,6.719392)"/>
<path style=" stroke:none;fill-rule:nonzero;fill:rgb(100%,100%,100%);fill-opacity:0.392157;" d="M 1.652344 1.449219 C 1.289062 1.449219 0.992188 1.742188 0.992188 2.109375 L 0.992188 2.273438 C 0.992188 1.910156 1.289062 1.613281 1.652344 1.613281 L 14.222656 1.613281 C 14.589844 1.613281 14.882812 1.910156 14.882812 2.273438 L 14.882812 2.109375 C 14.882812 1.742188 14.589844 1.449219 14.222656 1.449219 Z M 1.652344 1.449219 "/>
<path style=" stroke:none;fill-rule:nonzero;fill:rgb(0%,0%,0%);fill-opacity:0.235294;" d="M 1.652344 14.015625 C 1.289062 14.015625 0.992188 13.722656 0.992188 13.355469 L 0.992188 13.191406 C 0.992188 13.554688 1.289062 13.851562 1.652344 13.851562 L 14.222656 13.851562 C 14.589844 13.851562 14.882812 13.554688 14.882812 13.191406 L 14.882812 13.355469 C 14.882812 13.722656 14.589844 14.015625 14.222656 14.015625 Z M 1.652344 14.015625 "/>
<path style=" stroke:none;fill-rule:nonzero;fill:url(#linear5);" d="M 6.460938 3.519531 C 6.273438 3.511719 6.117188 3.660156 6.117188 3.847656 L 6.117188 8.148438 C 6.117188 8.402344 6.394531 8.558594 6.617188 8.429688 L 10.253906 6.28125 C 10.46875 6.152344 10.46875 5.839844 10.253906 5.714844 L 6.617188 3.5625 C 6.566406 3.535156 6.515625 3.519531 6.460938 3.519531 Z M 6.460938 3.519531 "/>
<path style=" stroke:none;fill-rule:nonzero;fill:rgb(100%,100%,100%);fill-opacity:0.588235;" d="M 6.441406 3.519531 C 6.265625 3.519531 6.117188 3.667969 6.117188 3.847656 L 6.117188 4.011719 C 6.117188 3.824219 6.273438 3.675781 6.460938 3.679688 C 6.515625 3.683594 6.566406 3.699219 6.617188 3.726562 L 10.253906 5.878906 C 10.335938 5.925781 10.386719 6 10.40625 6.078125 C 10.4375 5.945312 10.390625 5.792969 10.253906 5.714844 L 6.617188 3.5625 C 6.566406 3.535156 6.515625 3.519531 6.460938 3.519531 C 6.453125 3.519531 6.449219 3.519531 6.441406 3.519531 Z M 6.441406 3.519531 "/>
<path style=" stroke:none;fill-rule:nonzero;fill:rgb(0%,0%,0%);fill-opacity:0.235294;" d="M 6.441406 8.476562 C 6.265625 8.472656 6.117188 8.328125 6.117188 8.148438 L 6.117188 7.984375 C 6.117188 8.171875 6.273438 8.320312 6.460938 8.3125 C 6.515625 8.3125 6.566406 8.296875 6.617188 8.269531 L 10.253906 6.117188 C 10.335938 6.070312 10.386719 5.996094 10.40625 5.917969 C 10.4375 6.050781 10.390625 6.203125 10.253906 6.28125 L 6.617188 8.433594 C 6.566406 8.460938 6.515625 8.476562 6.460938 8.476562 C 6.453125 8.476562 6.449219 8.476562 6.441406 8.476562 Z M 6.441406 8.476562 "/>
<path style=" stroke:none;fill-rule:nonzero;fill:rgb(12.941177%,12.941177%,12.941177%);fill-opacity:1;" d="M 6.460938 3.472656 C 6.25 3.464844 6.070312 3.636719 6.070312 3.847656 L 6.070312 8.148438 C 6.070312 8.4375 6.390625 8.617188 6.640625 8.46875 L 10.277344 6.320312 C 10.523438 6.175781 10.523438 5.816406 10.277344 5.671875 L 6.640625 3.523438 C 6.585938 3.492188 6.523438 3.472656 6.460938 3.472656 Z M 6.457031 3.566406 C 6.503906 3.566406 6.550781 3.578125 6.59375 3.605469 L 10.230469 5.753906 C 10.417969 5.863281 10.417969 6.128906 10.230469 6.238281 L 6.59375 8.390625 C 6.402344 8.503906 6.164062 8.367188 6.164062 8.148438 L 6.164062 3.847656 C 6.164062 3.6875 6.296875 3.558594 6.457031 3.566406 Z M 6.457031 3.566406 "/>
<path style=" stroke:none;fill-rule:nonzero;fill:rgb(0%,0%,0%);fill-opacity:0.470588;" d="M 0.992188 10.453125 L 14.882812 10.453125 L 14.882812 10.632812 L 0.992188 10.632812 Z M 0.992188 10.453125 "/>
<path style=" stroke:none;fill-rule:nonzero;fill:rgb(0%,0%,0%);fill-opacity:0.235294;" d="M 0.992188 10.296875 L 14.882812 10.296875 L 14.882812 10.464844 L 0.992188 10.464844 Z M 0.992188 10.296875 "/>
<path style=" stroke:none;fill-rule:nonzero;fill:rgb(97.254902%,97.254902%,97.254902%);fill-opacity:0.392157;" d="M 0.992188 10.625 L 14.882812 10.625 L 14.882812 10.796875 L 0.992188 10.796875 Z M 0.992188 10.625 "/>
<path style=" stroke:none;fill-rule:nonzero;fill:rgb(12.941177%,12.941177%,12.941177%);fill-opacity:1;" d="M 1.652344 1.402344 C 1.261719 1.402344 0.945312 1.71875 0.945312 2.109375 L 0.945312 13.355469 C 0.945312 13.746094 1.261719 14.0625 1.652344 14.0625 L 14.222656 14.0625 C 14.613281 14.0625 14.929688 13.746094 14.929688 13.355469 L 14.929688 2.109375 C 14.929688 1.71875 14.613281 1.402344 14.222656 1.402344 Z M 1.652344 1.496094 L 14.222656 1.496094 C 14.5625 1.496094 14.835938 1.769531 14.835938 2.109375 L 14.835938 13.355469 C 14.835938 13.695312 14.5625 13.96875 14.222656 13.96875 L 1.652344 13.96875 C 1.3125 13.96875 1.039062 13.695312 1.039062 13.355469 L 1.039062 2.109375 C 1.039062 1.769531 1.3125 1.496094 1.652344 1.496094 Z M 1.652344 1.496094 "/>
</g>
</svg>

<svg xmlns="http://www.w3.org/2000/svg" width="16pt" height="16pt" viewBox="0 0 16 16"><defs><linearGradient id="a" gradientUnits="userSpaceOnUse" x1="254" y1="233.5" x2="254" y2="254.667" gradientTransform="matrix(.03125 0 0 .03125 0 6.72)"><stop offset="0" stop-opacity=".275"/><stop offset="1" stop-opacity="0"/></linearGradient><radialGradient id="b" gradientUnits="userSpaceOnUse" cx="450.909" cy="189.579" fx="450.909" fy="189.579" r="21.167" gradientTransform="matrix(0 -.03907 -.07032 0 26.561 31.798)"><stop offset="0" stop-opacity=".314"/><stop offset=".222" stop-opacity=".275"/><stop offset="1" stop-opacity="0"/></radialGradient><radialGradient id="c" gradientUnits="userSpaceOnUse" cx="450.909" cy="189.579" fx="450.909" fy="189.579" r="21.167" gradientTransform="matrix(0 .03907 .07032 0 -10.602 -3.764)"><stop offset="0" stop-opacity=".314"/><stop offset=".222" stop-opacity=".275"/><stop offset="1" stop-opacity="0"/></radialGradient><radialGradient id="d" gradientUnits="userSpaceOnUse" cx="450.909" cy="189.579" fx="450.909" fy="189.579" r="21.167" gradientTransform="matrix(0 -.03907 .07032 0 -10.602 31.798)"><stop offset="0" stop-opacity=".314"/><stop offset=".222" stop-opacity=".275"/><stop offset="1" stop-opacity="0"/></radialGradient><radialGradient id="e" gradientUnits="userSpaceOnUse" cx="450.909" cy="189.579" fx="450.909" fy="189.579" r="21.167" gradientTransform="matrix(0 .03907 -.07032 0 26.561 -3.764)"><stop offset="0" stop-opacity=".314"/><stop offset=".222" stop-opacity=".275"/><stop offset="1" stop-opacity="0"/></radialGradient><linearGradient id="f" gradientUnits="userSpaceOnUse" x1="254" y1="233.5" x2="254" y2="-168.667" gradientTransform="matrix(.03125 0 0 .03125 0 6.72)"><stop offset="0" stop-color="#26a69a"/><stop offset="1" stop-color="#4db6ac"/></linearGradient><linearGradient id="g" gradientUnits="userSpaceOnUse" x1="370.417" y1="159.417" x2="370.417" y2="180.583" gradientTransform="translate(0 10.583)"><stop offset="0" stop-color="#e0e0e0"/><stop offset="1" stop-color="#fafafa"/></linearGradient><linearGradient id="h" gradientUnits="userSpaceOnUse" x1="211.667" y1="159.417" x2="211.667" y2="180.583" gradientTransform="translate(0 10.583)"><stop offset="0" stop-color="#e53935"/><stop offset="1" stop-color="#ef5350"/></linearGradient><linearGradient id="i" gradientUnits="userSpaceOnUse" x1="285.75" y1="138.25" x2="285.75" y2="201.75" gradientTransform="translate(26.458 10.583)"><stop offset="0" stop-color="#e0e0e0"/><stop offset="1" stop-color="#fafafa"/></linearGradient><linearGradient id="j" gradientUnits="userSpaceOnUse" x1="254" y1="53.583" x2="254" y2="-105.167" gradientTransform="matrix(.03125 0 0 .03125 -.167 6.803)"><stop offset="0" stop-color="#e0e0e0"/><stop offset="1" stop-color="#f5f5f5"/></linearGradient></defs><path d="M2.563 14.016h10.832v.664H2.563zm0 0" fill="url(#a)"/><path d="M13.395 14.016h1.324v-.66h-1.324zm0 0" fill="url(#b)"/><path d="M2.563 14.016h-1.32v.664h1.32zm0 0" fill="url(#c)"/><path d="M2.563 14.016h-1.32v-.66h1.32zm0 0" fill="url(#d)"/><path d="M13.395 14.016h1.324v.664h-1.324zm0 0" fill="url(#e)"/><path d="M1.652 1.45h12.57a.66.66 0 0 1 .66.66v11.245c0 .368-.292.66-.66.66H1.653a.66.66 0 0 1-.66-.66V2.11c0-.363.297-.66.66-.66zm0 0" fill="url(#f)"/><path d="M74.118 169.963h359.84c5.75 0 10.5 4.75 10.5 10.624 0 5.875-4.75 10.624-10.5 10.624H74.119a10.615 10.615 0 0 1-10.624-10.624c0-5.874 4.75-10.624 10.624-10.624zm0 0" transform="matrix(.03125 0 0 .03125 0 6.72)" fill="url(#g)" stroke-width="3" stroke-linecap="round" stroke="#212121"/><path d="M74.118 169.963h264.6c5.75 0 10.499 4.375 10.499 9.624v2c0 5.25-4.75 9.624-10.5 9.624h-264.6c-5.874 0-10.623-4.374-10.623-9.624v-2c0-5.25 4.75-9.624 10.624-9.624zm0 0" transform="matrix(.03125 0 0 .03125 0 6.72)" fill="url(#h)" stroke-width="3" stroke-linecap="round" stroke="#212121"/><path d="M322.844 148.84c17.498 0 31.747 14.249 31.747 31.747 0 17.499-14.249 31.747-31.747 31.747-17.623 0-31.747-14.248-31.747-31.747 0-17.498 14.124-31.747 31.747-31.747zm0 0" transform="matrix(.03125 0 0 .03125 0 6.72)" fill="url(#i)" stroke-width="3" stroke-linecap="round" stroke="#212121"/><path d="M1.652 1.45a.66.66 0 0 0-.66.66v.163c0-.363.297-.66.66-.66h12.57a.66.66 0 0 1 .66.66V2.11a.657.657 0 0 0-.66-.66zm0 0" fill="#fff" fill-opacity=".392"/><path d="M1.652 14.016a.66.66 0 0 1-.66-.66v-.165c0 .364.297.66.66.66h12.57a.66.66 0 0 0 .66-.66v.164c0 .368-.292.66-.66.66zm0 0" fill-opacity=".235"/><path d="M6.46 3.52a.329.329 0 0 0-.343.328v4.3c0 .254.278.41.5.282l3.637-2.149a.33.33 0 0 0 0-.566L6.617 3.563a.325.325 0 0 0-.156-.043zm0 0" fill="url(#j)"/><path d="M6.441 3.52a.33.33 0 0 0-.324.328v.164c0-.188.156-.336.344-.332a.38.38 0 0 1 .156.047l3.637 2.152a.318.318 0 0 1 .152.2.327.327 0 0 0-.152-.364L6.617 3.563a.325.325 0 0 0-.156-.043h-.02zm0 0" fill="#fff" fill-opacity=".588"/><path d="M6.441 8.477a.332.332 0 0 1-.324-.329v-.164c0 .188.156.336.344.329a.325.325 0 0 0 .156-.043l3.637-2.153a.318.318 0 0 0 .152-.199.327.327 0 0 1-.152.363L6.617 8.434a.325.325 0 0 1-.156.043h-.02zm0 0" fill-opacity=".235"/><path d="M6.46 3.473a.379.379 0 0 0-.39.375v4.3c0 .29.32.47.57.32l3.637-2.148a.377.377 0 0 0 0-.648L6.641 3.523a.367.367 0 0 0-.18-.05zm-.003.093c.047 0 .094.012.137.04l3.636 2.148a.279.279 0 0 1 0 .484L6.594 8.391a.283.283 0 0 1-.43-.243v-4.3c0-.16.133-.29.293-.282zm0 0" fill="#212121"/><path d="M.992 10.453h13.89v.18H.993zm0 0" fill-opacity=".471"/><path d="M.992 10.297h13.89v.168H.993zm0 0" fill-opacity=".235"/><path d="M.992 10.625h13.89v.172H.993zm0 0" fill="#f8f8f8" fill-opacity=".392"/><path d="M1.652 1.402a.707.707 0 0 0-.707.707v11.246c0 .391.317.707.707.707h12.57c.391 0 .708-.316.708-.707V2.11a.707.707 0 0 0-.707-.707zm0 .094h12.57c.34 0 .614.274.614.613v11.246c0 .34-.274.614-.613.614H1.653a.612.612 0 0 1-.614-.614V2.11c0-.34.274-.613.613-.613zm0 0" fill="#212121"/></svg>
